X:1
T:Title
%%score { 1 | 2 }
L:1/8
M:6/8
K:G
V:1 treble nm="Grand Piano"
V:2 treble 
V:1
 z3 z2[Q:1/4=100] D | B>AG [EG][DF]E | D3- D2 G | F2 G [FA]2 [F_B] | B3- B2 D | B2 B c2 B | %6
 [EB]2 [EA] [CE]2 [EG] | F2 G [FB]2 A | G3- G2 B | [FA]2 [FA] [GB]2 [GB] | [Fd]2 [Fc] [FA]2 [FA] | %11
 [DGB]2 [DGB] [DAc]2 [DGB] | [DFA]3- [DFA]2 D | B2 B c2 B | [EB]2 [EA] [CE]2 [EG] | F2 G [FB]2 A | %16
[M:5/8] G-G- G3 |[M:3/4] A>F D .D3 | d>B G G2 G | A2 A [Fd]2 [Fd] | [GB]6 | [Fc]>[FA] F .D3 | %22
 e>d B [DG]2 [EGA] | [DGB]2 [B,DG] [DFB]2 [CDA] |[M:5/8] [B,DG]-[B,DG]- [B,DG]3 |] %25
V:2
 z3 z2 [G,B,] | [G,DG]>[K:bass][G,CD][G,B,D] [C,C][C,C][C,G,C] | [G,B,]3- [G,B,]2 [G,B,D] | %3
 [D,A,D]2 [D,B,D] [D,C]2 [D,^C] | [G,DG]3- [G,DG]2 [G,B,] | [G,DG]2 [G,DG] [G,EG]2 [G,DG] | %6
 [C,C]2 [C,C] [C,G,]2 [^C,A,] | [D,A,D]2 [D,B,] [D,D]2 [D,CD] | [G,B,D]3- [G,B,D]2 [G,DG] | %9
 [D,D]2 [D,D] [D,D]2 [D,D] | [D,A,]2 [D,D] [D,D]2 [D,D] | G,2 G, F,2 G, | D,3- D,2 D, | %13
 [G,DG]2 [G,DG] [G,EG]2 [G,DG] | [C,C]2 [C,C] [C,G,]2 [^C,A,] | [D,A,D]2 [D,A,] [D,D]2 [D,CD] | %16
[M:5/8] [G,B,D]-[G,B,D]- [G,B,D]3 |[M:3/4] [D,F,D]>[D,A,D] [D,C] .[D,C]3 | %18
 [G,B,D]>[G,D] [G,B,D] [G,B,D]2 [G,B,D] | [F,D]2 [F,D] [D,D]2 [D,D] | [G,D]6 | %21
 [D,D]>[D,C] [D,CD] .[D,C]3 | [G,CG]>[G,B,G] [G,G][K:bass] B,,2 C, | D,2 D, D,2 D, | %24
[M:5/8] G,-G,- G,3 |] %25

